src/assets/logo.svg

<svg width="149" height="52" viewBox="0 0 149 52" fill="none" xmlns="http://www.w3.org/2000/svg">
<g clip-path="url(#clip0_1709_724)">
<path d="M25.67 51.34C20.593 51.34 15.6299 49.8345 11.4085 47.0138C7.18711 44.1932 3.89693 40.1841 1.95402 35.4935C0.0111225 30.8029 -0.497229 25.6415 0.493253 20.662C1.48374 15.6826 3.92857 11.1086 7.51858 7.51858C11.1086 3.92857 15.6826 1.48374 20.662 0.493253C25.6415 -0.497229 30.8029 0.0111225 35.4935 1.95402C40.1841 3.89693 44.1932 7.18711 47.0138 11.4085C49.8345 15.6299 51.34 20.593 51.34 25.67C51.3321 32.4757 48.625 39.0003 43.8127 43.8127C39.0003 48.625 32.4757 51.3321 25.67 51.34ZM25.67 4.67001C21.5166 4.67001 17.4565 5.90164 14.003 8.20915C10.5496 10.5167 7.85798 13.7964 6.26854 17.6337C4.6791 21.4709 4.26323 25.6933 5.07352 29.7669C5.88381 33.8405 7.88387 37.5824 10.8208 40.5193C13.7577 43.4562 17.4995 45.4562 21.5731 46.2665C25.6467 47.0768 29.8691 46.6609 33.7064 45.0715C37.5436 43.482 40.8234 40.7904 43.1309 37.337C45.4384 33.8836 46.67 29.8234 46.67 25.67C46.67 20.1005 44.4575 14.759 40.5193 10.8208C36.581 6.88251 31.2396 4.67001 25.67 4.67001Z" fill="#10FF37"/>
<path d="M31.3399 18.7599C30.7465 17.79 29.9128 16.9896 28.9195 16.436C27.9263 15.8824 26.807 15.5945 25.6699 15.5999C24.5329 15.5945 23.4136 15.8824 22.4203 16.436C21.4271 16.9896 20.5934 17.79 19.9999 18.7599L11.4399 32.6699H16.9199L23.9199 21.2099C24.0998 20.9227 24.3497 20.6859 24.6462 20.5218C24.9427 20.3576 25.276 20.2715 25.6149 20.2715C25.9538 20.2715 26.2872 20.3576 26.5837 20.5218C26.8801 20.6859 27.1301 20.9227 27.3099 21.2099L34.3699 32.6699H39.8999L31.3399 18.7599Z" fill="#10FF37"/>
<path d="M76.9999 11.0701L83.3999 23.4701H79.8899L78.3899 20.4701H70.8599L69.3399 23.4701H65.8799L72.2799 11.0701H76.9999ZM74.5999 13.3901L72.1499 18.0001H77.0999L74.7399 13.3901H74.5999Z" fill="white"/>
<path d="M89.4399 16.9999L91.3499 14.6399H94.5999L91.4899 18.5399L95.3899 23.4699H92.0799L89.5399 20.1899L86.9299 23.4699H83.6399L87.4699 18.6299L84.3199 14.6299H87.6099L89.4399 16.9999Z" fill="white"/>
<path d="M99.9299 13.4501H96.9299V11.0701H99.9299V13.4501ZM99.9299 23.4501H96.9299V14.6401H99.9299V23.4501Z" fill="white"/>
<path d="M104.4 21.1C104.425 21.1927 104.482 21.2739 104.56 21.33C104.659 21.4122 104.775 21.4704 104.9 21.5C105.087 21.5452 105.278 21.5654 105.47 21.56H108.76C109.079 21.5933 109.4 21.5269 109.68 21.37C109.759 21.309 109.822 21.2299 109.864 21.1393C109.905 21.0488 109.925 20.9496 109.92 20.85C109.924 20.7559 109.905 20.6623 109.865 20.577C109.825 20.4918 109.765 20.4174 109.69 20.36C109.408 20.1983 109.084 20.1251 108.76 20.15L104.76 20.08C104.33 20.0735 103.901 20.0267 103.48 19.94C103.141 19.8842 102.819 19.7507 102.54 19.55C102.279 19.3707 102.074 19.121 101.95 18.83C101.799 18.4729 101.727 18.0874 101.74 17.7V17.27C101.737 16.89 101.794 16.5118 101.91 16.15C102.025 15.8259 102.225 15.5391 102.49 15.32C102.806 15.0652 103.175 14.8841 103.57 14.79C104.117 14.6592 104.678 14.5987 105.24 14.61H109.24C109.763 14.6042 110.285 14.6444 110.8 14.73C111.196 14.7812 111.576 14.9214 111.91 15.14C112.207 15.3374 112.437 15.6197 112.57 15.95C112.73 16.3641 112.805 16.8062 112.79 17.25H110C110 16.79 109.5 16.56 108.51 16.56H105.42C105.126 16.528 104.829 16.5873 104.57 16.73C104.498 16.7842 104.44 16.8554 104.401 16.9374C104.363 17.0194 104.345 17.1096 104.35 17.2C104.341 17.2806 104.354 17.3622 104.387 17.4361C104.421 17.5101 104.473 17.5736 104.54 17.62C104.815 17.7225 105.107 17.77 105.4 17.76L109.28 17.83C109.858 17.8278 110.434 17.8847 111 18C111.395 18.074 111.77 18.2308 112.1 18.46C112.368 18.6557 112.576 18.9224 112.7 19.23C112.828 19.5822 112.889 19.9553 112.88 20.33V20.79C112.903 21.1713 112.833 21.5525 112.676 21.9009C112.52 22.2492 112.281 22.5543 111.98 22.79C111.19 23.2978 110.257 23.5364 109.32 23.47H105.1C104.641 23.4718 104.183 23.435 103.73 23.36C103.348 23.2958 102.984 23.1527 102.66 22.94C102.367 22.7296 102.132 22.4472 101.98 22.12C101.806 21.7129 101.724 21.2724 101.74 20.83H104.37C104.364 20.921 104.374 21.0125 104.4 21.1Z" fill="white"/>
<path d="M78.48 27.9399V30.4099H68.77V32.6999H78.18V35.1799H68.77V40.3499H65.77V27.9399H78.48Z" fill="white"/>
<path d="M83.48 30.3199H80.48V27.9399H83.48V30.3199ZM83.48 40.3199H80.48V31.5199H83.48V40.3199Z" fill="white"/>
<path d="M95.91 32.53C96.2843 32.9301 96.5724 33.4029 96.7564 33.9189C96.9405 34.435 97.0166 34.9833 96.98 35.53V40.34H94V36C94.0417 35.3465 93.8304 34.702 93.41 34.2C93.1383 33.9624 92.8203 33.7838 92.476 33.6753C92.1318 33.5669 91.7688 33.531 91.41 33.57H91C90.6542 33.5445 90.3069 33.5889 89.9788 33.7006C89.6506 33.8122 89.3483 33.9889 89.09 34.22C88.8683 34.4579 88.6972 34.7383 88.5872 35.0443C88.4772 35.3503 88.4305 35.6754 88.45 36V40.33H85.45V31.52H88.45V32.81C88.5394 32.6509 88.6431 32.5003 88.76 32.36C88.9055 32.1847 89.086 32.0417 89.29 31.94C89.561 31.7918 89.8552 31.6904 90.16 31.64C90.5976 31.5514 91.0436 31.5112 91.49 31.52H92.42C93.6677 31.4178 94.9096 31.7772 95.91 32.53Z" fill="white"/>
<path d="M104.34 34.6799C104.99 34.6799 105.5 34.6799 105.89 34.7399C106.201 34.7747 106.509 34.8349 106.81 34.9199C106.995 34.9748 107.163 35.0744 107.3 35.2099C107.401 35.3225 107.488 35.4467 107.56 35.5799V34.8999C107.565 34.6455 107.528 34.392 107.45 34.1499C107.386 33.9545 107.264 33.7834 107.1 33.6599C106.906 33.5267 106.683 33.4411 106.45 33.4099C106.119 33.3627 105.784 33.3393 105.45 33.3399H103.58C103.265 33.3349 102.951 33.3549 102.64 33.3999C102.441 33.4193 102.246 33.4664 102.06 33.5399C101.938 33.5829 101.833 33.6634 101.76 33.7699C101.709 33.8654 101.682 33.9717 101.68 34.0799H98.8399C98.8146 33.7114 98.8807 33.3424 99.0325 33.0057C99.1843 32.6689 99.417 32.375 99.7099 32.1499C100.6 31.6566 101.616 31.4374 102.63 31.5199H105.88C106.555 31.5016 107.23 31.5859 107.88 31.7699C108.355 31.9045 108.795 32.1398 109.17 32.4599C109.48 32.7306 109.717 33.0743 109.86 33.4599C109.996 33.897 110.063 34.3523 110.06 34.8099V40.2999H107.58V39.2999C107.487 39.4399 107.397 39.5699 107.31 39.6899C107.183 39.828 107.026 39.9343 106.85 39.9999C106.569 40.1067 106.277 40.1805 105.98 40.2199C105.479 40.2786 104.974 40.3053 104.47 40.2999H102.47C101.494 40.3715 100.518 40.1707 99.6499 39.7199C99.3361 39.4968 99.0879 39.1935 98.9313 38.8417C98.7748 38.4898 98.7156 38.1024 98.7599 37.7199V37.2199C98.7512 36.8305 98.8052 36.4422 98.9199 36.0699C99.0397 35.7433 99.2473 35.4561 99.5199 35.2399C99.8646 34.9976 100.256 34.8307 100.67 34.7499C101.27 34.635 101.879 34.5814 102.49 34.5899L104.34 34.6799ZM102 38.2099C102.321 38.3209 102.66 38.3717 103 38.3599H105.85C106.215 38.3765 106.581 38.3291 106.93 38.2199C107.19 38.1299 107.32 37.8899 107.32 37.5199C107.336 37.3797 107.308 37.2379 107.24 37.1143C107.172 36.9907 107.067 36.8913 106.94 36.8299C106.59 36.7069 106.22 36.6526 105.85 36.6699H103C102.661 36.656 102.322 36.7035 102 36.8099C101.866 36.8695 101.756 36.9711 101.685 37.0993C101.615 37.2275 101.589 37.3752 101.61 37.5199C101.59 37.6618 101.617 37.8064 101.688 37.9312C101.758 38.056 101.868 38.154 102 38.2099Z" fill="white"/>
<path d="M122.48 32.5299C122.86 32.9268 123.152 33.3988 123.338 33.9155C123.524 34.4322 123.6 34.9822 123.56 35.5299V40.3399H120.56V35.9999C120.602 35.3464 120.39 34.7019 119.97 34.1999C119.698 33.9623 119.38 33.7837 119.036 33.6752C118.692 33.5668 118.329 33.5309 117.97 33.5699H117.54C117.193 33.5448 116.844 33.5893 116.514 33.7009C116.185 33.8126 115.881 33.989 115.62 34.2199C115.404 34.4607 115.238 34.7421 115.131 35.0476C115.025 35.3532 114.98 35.6769 115 35.9999V40.3299H112V31.5199H115V32.8099C115.086 32.6487 115.19 32.4977 115.31 32.3599C115.453 32.1824 115.634 32.0389 115.84 31.9399C116.108 31.7933 116.399 31.692 116.7 31.6399C117.141 31.5519 117.59 31.5117 118.04 31.5199H119C120.245 31.4155 121.484 31.7752 122.48 32.5299Z" fill="white"/>
<path d="M136.08 38.6599C135.957 39.031 135.719 39.3533 135.4 39.5799C134.962 39.8704 134.468 40.0647 133.95 40.1499C133.139 40.2978 132.315 40.3648 131.49 40.3499H130.15C129.295 40.3656 128.441 40.2953 127.6 40.1399C127.027 40.0525 126.485 39.8259 126.02 39.4799C125.64 39.1788 125.363 38.7661 125.23 38.2999C125.066 37.7279 124.989 37.1347 125 36.5399V35.3999C124.988 34.7945 125.069 34.1908 125.24 33.6099C125.366 33.1393 125.631 32.7175 126 32.3999C126.442 32.0548 126.96 31.8184 127.51 31.7099C128.292 31.543 129.09 31.4659 129.89 31.4799H131.23C132.06 31.4691 132.889 31.5259 133.71 31.6499C134.246 31.7269 134.762 31.9069 135.23 32.1799C135.58 32.3948 135.85 32.7177 136 33.0999C136.156 33.5254 136.231 33.9767 136.22 34.4299V34.6099H133.39C133.394 34.4583 133.363 34.3078 133.3 34.1699C133.217 34.0275 133.091 33.9153 132.94 33.8499C132.69 33.7474 132.428 33.6801 132.16 33.6499C131.721 33.6046 131.281 33.5845 130.84 33.5899H130.16C129.737 33.5821 129.314 33.6224 128.9 33.7099C128.602 33.7694 128.322 33.8959 128.08 34.0799C127.878 34.2458 127.732 34.469 127.66 34.7199C127.561 35.0435 127.517 35.3816 127.53 35.7199V36.2999C127.503 36.5832 127.543 36.8688 127.645 37.1343C127.747 37.3997 127.91 37.6378 128.12 37.8299C128.74 38.2007 129.461 38.3653 130.18 38.2999H130.89C131.328 38.3031 131.765 38.2797 132.2 38.2299C132.478 38.1981 132.748 38.1204 133 37.9999C133.158 37.933 133.283 37.8075 133.35 37.6499C133.409 37.497 133.436 37.3337 133.43 37.1699H136.26V37.4399C136.259 37.8531 136.199 38.2641 136.08 38.6599Z" fill="white"/>
<path d="M140.22 40.1499C139.65 40.049 139.109 39.8199 138.64 39.4799C138.248 39.1814 137.959 38.7693 137.81 38.2999C137.637 37.7296 137.556 37.1356 137.57 36.5399V35.3399C137.56 34.7484 137.638 34.1587 137.8 33.5899C137.941 33.1218 138.22 32.7071 138.6 32.3999C139.035 32.055 139.546 31.8185 140.09 31.7099C140.852 31.543 141.63 31.4658 142.41 31.4799H143.83C144.654 31.4688 145.477 31.5324 146.29 31.6699C146.842 31.7583 147.366 31.974 147.82 32.2999C148.201 32.6027 148.474 33.0199 148.6 33.4899C148.754 34.0839 148.825 34.6964 148.81 35.3099V36.5999H140.29V36.9399C140.283 37.128 140.318 37.3153 140.392 37.4883C140.467 37.6612 140.579 37.8155 140.72 37.9399C141.187 38.2375 141.739 38.3712 142.29 38.3199H144.15C144.52 38.3199 144.82 38.3199 145.07 38.3199C145.268 38.3089 145.464 38.2685 145.65 38.1999C145.775 38.1429 145.88 38.0486 145.95 37.9299C146.016 37.7928 146.046 37.6417 146.04 37.4899H148.81V37.6699C148.813 38.0106 148.755 38.3491 148.64 38.6699C148.509 39.0264 148.267 39.3314 147.95 39.5399C147.507 39.8328 147.011 40.0366 146.49 40.1399C145.669 40.3192 144.83 40.3998 143.99 40.3799H142.68C141.854 40.3939 141.029 40.3167 140.22 40.1499ZM142.22 33.5599C141.881 33.5465 141.542 33.5939 141.22 33.6999C141.004 33.7666 140.81 33.8911 140.66 34.0599C140.541 34.1842 140.461 34.3406 140.43 34.5099C140.4 34.6548 140.384 34.802 140.38 34.9499H146C146.014 34.7936 146.014 34.6362 146 34.4799C145.955 34.3096 145.865 34.1544 145.74 34.0299C145.566 33.8711 145.357 33.7547 145.13 33.6899C144.779 33.591 144.415 33.5472 144.05 33.5599H142.22Z" fill="white"/>
</g>
<defs>
<clipPath id="clip0_1709_724">
<rect width="148.81" height="51.34" fill="white"/>
</clipPath>
</defs>
</svg>

<svg xmlns="http://www.w3.org/2000/svg" viewBox="0 0 148.81 51.34"><defs><style>.cls-1{fill:#10ff37;}</style></defs><title>Asset 7</title><g id="Layer_2" data-name="Layer 2"><g id="Layer_1-2" data-name="Layer 1"><path class="cls-1" d="M25.67,51.34A25.67,25.67,0,1,1,51.34,25.67,25.7,25.7,0,0,1,25.67,51.34Zm0-46.67a21,21,0,1,0,21,21A21,21,0,0,0,25.67,4.67Z"/><path class="cls-1" d="M31.34,18.76a6.61,6.61,0,0,0-5.67-3.16h0A6.61,6.61,0,0,0,20,18.76L11.44,32.67h5.48l7-11.46a2,2,0,0,1,3.39,0l7.06,11.46H39.9Z"/><path d="M77,11.07l6.4,12.4H79.89l-1.5-3H70.86l-1.52,3H65.88l6.4-12.4ZM74.6,13.39,72.15,18H77.1l-2.36-4.61Z"/><path d="M89.44,17l1.91-2.36H94.6l-3.11,3.9,3.9,4.93H92.08l-2.54-3.28-2.61,3.28H83.64l3.83-4.84-3.15-4h3.29Z"/><path d="M99.93,13.45h-3V11.07h3Zm0,10h-3V14.64h3Z"/><path d="M104.4,21.1a.42.42,0,0,0,.16.23.83.83,0,0,0,.34.17,2.16,2.16,0,0,0,.57.06h3.29a1.55,1.55,0,0,0,.92-.19.62.62,0,0,0,.24-.52.59.59,0,0,0-.23-.49,1.62,1.62,0,0,0-.93-.21l-4-.07a6.86,6.86,0,0,1-1.28-.14,2.23,2.23,0,0,1-.94-.39,1.67,1.67,0,0,1-.59-.72,2.68,2.68,0,0,1-.21-1.13v-.43a3.56,3.56,0,0,1,.17-1.12,1.9,1.9,0,0,1,.58-.83,2.73,2.73,0,0,1,1.08-.53,6.61,6.61,0,0,1,1.67-.18h4a8.92,8.92,0,0,1,1.56.12,2.65,2.65,0,0,1,1.11.41,1.77,1.77,0,0,1,.66.81,3.3,3.3,0,0,1,.22,1.3H110c0-.46-.5-.69-1.49-.69h-3.09a1.44,1.44,0,0,0-.85.17.55.55,0,0,0-.22.47.45.45,0,0,0,.19.42,2.24,2.24,0,0,0,.86.14l3.88.07A8.46,8.46,0,0,1,111,18a2.85,2.85,0,0,1,1.1.46,1.78,1.78,0,0,1,.6.77,3,3,0,0,1,.18,1.1v.46a2.36,2.36,0,0,1-.9,2,4.35,4.35,0,0,1-2.66.68h-4.22a8.18,8.18,0,0,1-1.37-.11,2.79,2.79,0,0,1-1.07-.42,2.1,2.1,0,0,1-.68-.82,3,3,0,0,1-.24-1.29h2.63A.77.77,0,0,0,104.4,21.1Z"/><path d="M78.48,27.94v2.47H68.77V32.7h9.41v2.48H68.77v5.17h-3V27.94Z"/><path d="M83.48,30.32h-3V27.94h3Zm0,10h-3V31.52h3Z"/><path d="M95.91,32.53a4,4,0,0,1,1.07,3v4.81H94V36a2.55,2.55,0,0,0-.59-1.8,2.61,2.61,0,0,0-2-.63H91a2.58,2.58,0,0,0-1.91.65A2.4,2.4,0,0,0,88.45,36v4.33h-3V31.52h3v1.29a3,3,0,0,1,.31-.45,1.64,1.64,0,0,1,.53-.42,2.75,2.75,0,0,1,.87-.3,6.1,6.1,0,0,1,1.33-.12h.93A5.11,5.11,0,0,1,95.91,32.53Z"/><path d="M104.34,34.68c.65,0,1.16,0,1.55.06a5.74,5.74,0,0,1,.92.18,1.17,1.17,0,0,1,.49.29,1.9,1.9,0,0,1,.26.37V34.9a2.28,2.28,0,0,0-.11-.75,1,1,0,0,0-.35-.49,1.5,1.5,0,0,0-.65-.25,7,7,0,0,0-1-.07h-1.87a5.91,5.91,0,0,0-.94.06,2.14,2.14,0,0,0-.58.14.61.61,0,0,0-.3.23.68.68,0,0,0-.08.31H98.84a2.24,2.24,0,0,1,.87-1.93,5.16,5.16,0,0,1,2.92-.63h3.25a6.68,6.68,0,0,1,2,.25,3.43,3.43,0,0,1,1.29.69,2.47,2.47,0,0,1,.69,1,4.45,4.45,0,0,1,.2,1.35v5.49h-2.48v-1q-.14.21-.27.39a1.19,1.19,0,0,1-.46.31,3.88,3.88,0,0,1-.87.22,11.9,11.9,0,0,1-1.51.08h-2a5.28,5.28,0,0,1-2.82-.58,2.15,2.15,0,0,1-.89-2v-.5a3.63,3.63,0,0,1,.16-1.15,1.89,1.89,0,0,1,.6-.83,3,3,0,0,1,1.15-.49,9,9,0,0,1,1.82-.16ZM102,38.21a2.77,2.77,0,0,0,1,.15h2.85a3.14,3.14,0,0,0,1.08-.14c.26-.09.39-.33.39-.7a.68.68,0,0,0-.38-.69,2.88,2.88,0,0,0-1.09-.16h-2.85a2.82,2.82,0,0,0-1,.14.67.67,0,0,0-.39.71A.65.65,0,0,0,102,38.21Z"/><path d="M122.48,32.53a3.93,3.93,0,0,1,1.08,3v4.81h-3V36a2.55,2.55,0,0,0-.59-1.8,2.61,2.61,0,0,0-2-.63h-.43a2.61,2.61,0,0,0-1.92.65A2.44,2.44,0,0,0,115,36v4.33h-3V31.52h3v1.29a2.42,2.42,0,0,1,.31-.45,1.54,1.54,0,0,1,.53-.42,2.78,2.78,0,0,1,.86-.3,6.26,6.26,0,0,1,1.34-.12H119A5.06,5.06,0,0,1,122.48,32.53Z"/><path d="M136.08,38.66a1.84,1.84,0,0,1-.68.92,3.71,3.71,0,0,1-1.45.57,12.46,12.46,0,0,1-2.46.2h-1.34a12.74,12.74,0,0,1-2.55-.21,3.54,3.54,0,0,1-1.58-.66,2.32,2.32,0,0,1-.79-1.18,6,6,0,0,1-.23-1.76V35.4a5.92,5.92,0,0,1,.24-1.79A2.42,2.42,0,0,1,126,32.4a3.58,3.58,0,0,1,1.51-.69,10.52,10.52,0,0,1,2.38-.23h1.34a15.27,15.27,0,0,1,2.48.17,4.2,4.2,0,0,1,1.52.53,1.89,1.89,0,0,1,.77.92,3.6,3.6,0,0,1,.22,1.33v.18h-2.83a1,1,0,0,0-.09-.44.77.77,0,0,0-.36-.32,2.91,2.91,0,0,0-.78-.2,11.48,11.48,0,0,0-1.32-.06h-.68a5.6,5.6,0,0,0-1.26.12,2,2,0,0,0-.82.37,1.29,1.29,0,0,0-.42.64,3,3,0,0,0-.13,1v.58a1.84,1.84,0,0,0,.59,1.53,3.41,3.41,0,0,0,2.06.47h.71a10.81,10.81,0,0,0,1.31-.07A2.52,2.52,0,0,0,133,38a.66.66,0,0,0,.35-.35,1.21,1.21,0,0,0,.08-.48h2.83v.27A4.27,4.27,0,0,1,136.08,38.66Z"/><path d="M140.22,40.15a3.83,3.83,0,0,1-1.58-.67,2.39,2.39,0,0,1-.83-1.18,5.63,5.63,0,0,1-.24-1.76v-1.2a6,6,0,0,1,.23-1.75,2.43,2.43,0,0,1,.8-1.19,3.5,3.5,0,0,1,1.49-.69,10,10,0,0,1,2.32-.23h1.42a13.64,13.64,0,0,1,2.46.19,3.6,3.6,0,0,1,1.53.63,2.27,2.27,0,0,1,.78,1.19,6.64,6.64,0,0,1,.21,1.82V36.6h-8.52v.34a1.27,1.27,0,0,0,.43,1,2.49,2.49,0,0,0,1.57.38h1.86c.37,0,.67,0,.92,0a2,2,0,0,0,.58-.12.67.67,0,0,0,.3-.27.93.93,0,0,0,.09-.44h2.77v.18a2.9,2.9,0,0,1-.17,1,1.77,1.77,0,0,1-.69.87,4.09,4.09,0,0,1-1.46.6,10.54,10.54,0,0,1-2.5.24h-1.31A11.24,11.24,0,0,1,140.22,40.15Zm2-6.59a2.84,2.84,0,0,0-1,.14,1.24,1.24,0,0,0-.56.36.88.88,0,0,0-.23.45,2.47,2.47,0,0,0-.05.44H146a2.59,2.59,0,0,0,0-.47,1,1,0,0,0-.26-.45,1.53,1.53,0,0,0-.61-.34,3.53,3.53,0,0,0-1.08-.13Z"/></g></g></svg>
